src/images/svg/symbols/uni-usd.svg

<svg width="33" height="32" viewBox="0 0 33 32" fill="none" xmlns="http://www.w3.org/2000/svg">
<path d="M2.5 11C2.5 6.02944 6.52944 2 11.5 2C16.4706 2 20.5 6.02944 20.5 11C20.5 15.9706 16.4706 20 11.5 20C6.52944 20 2.5 15.9706 2.5 11Z" fill="#FF007A"/>
<g clip-path="url(#clip0_10352_38078)">
<path d="M10.3597 7.37277C10.2378 7.35535 10.232 7.34955 10.2901 7.34374C10.4004 7.32633 10.6558 7.34955 10.8358 7.39018C11.2537 7.48886 11.6311 7.74428 12.0317 8.19126L12.1361 8.31317L12.2871 8.28995C12.9315 8.18546 13.5933 8.26673 14.1448 8.52215C14.2957 8.59181 14.5337 8.73112 14.5627 8.76595C14.5743 8.77756 14.5918 8.85303 14.6034 8.92849C14.644 9.20133 14.6266 9.4045 14.5395 9.56123C14.4931 9.64831 14.4931 9.67153 14.5221 9.74699C14.5453 9.80504 14.615 9.84568 14.6788 9.84568C14.8182 9.84568 14.9633 9.62509 15.033 9.31742L15.062 9.19552L15.1142 9.25357C15.4103 9.58445 15.6425 10.043 15.6773 10.3681L15.689 10.4552L15.6367 10.3797C15.5496 10.2462 15.4684 10.1591 15.3581 10.0837C15.1607 9.95016 14.9517 9.90953 14.4002 9.88051C13.9009 9.85148 13.6165 9.81085 13.3378 9.71797C12.8618 9.56123 12.618 9.35806 12.0549 8.60922C11.8052 8.27834 11.6485 8.09838 11.4918 7.94746C11.1493 7.61657 10.8067 7.44242 10.3597 7.37277Z" fill="white"/>
<path d="M14.6839 8.10963C14.6956 7.88904 14.7246 7.74392 14.7884 7.6104C14.8117 7.55816 14.8349 7.51172 14.8407 7.51172C14.8465 7.51172 14.8349 7.55235 14.8175 7.59879C14.771 7.7265 14.7652 7.90646 14.7942 8.10963C14.8349 8.37085 14.8523 8.40568 15.131 8.69012C15.2587 8.82364 15.4096 8.99198 15.4677 9.06164L15.5663 9.18935L15.4677 9.09647C15.3457 8.98037 15.0671 8.75978 15.0032 8.73076C14.9626 8.70754 14.9568 8.70754 14.9278 8.73656C14.9045 8.75978 14.8987 8.79461 14.8987 8.96296C14.8929 9.22418 14.8581 9.38672 14.771 9.55506C14.7246 9.64214 14.7188 9.62472 14.7594 9.52604C14.7884 9.45057 14.7942 9.41574 14.7942 9.16613C14.7942 8.6611 14.7362 8.5392 14.3821 8.33602C14.295 8.28378 14.1441 8.20831 14.057 8.16768C13.9641 8.12704 13.8944 8.09221 13.9002 8.09221C13.9119 8.0806 14.2544 8.17929 14.3879 8.23734C14.5911 8.31861 14.6259 8.32441 14.6491 8.31861C14.6665 8.30119 14.6781 8.25475 14.6839 8.10963Z" fill="white"/>
<path d="M10.5971 8.97446C10.3533 8.63777 10.1966 8.11533 10.2314 7.7264L10.243 7.60449L10.3011 7.6161C10.4056 7.63352 10.5855 7.70318 10.6726 7.75542C10.9048 7.89474 11.0093 8.0863 11.108 8.56231C11.137 8.70163 11.1776 8.86417 11.1951 8.91641C11.2241 9.00349 11.3344 9.20666 11.4273 9.33437C11.4911 9.42725 11.4505 9.47369 11.3054 9.46208C11.0848 9.43886 10.7887 9.23568 10.5971 8.97446Z" fill="white"/>
<path d="M14.3878 11.4995C13.2384 11.0351 12.832 10.6345 12.832 9.95534C12.832 9.85666 12.8378 9.77539 12.8378 9.77539C12.8436 9.77539 12.8843 9.81022 12.9365 9.85086C13.1687 10.0366 13.43 10.1179 14.1556 10.2224C14.5794 10.2862 14.8232 10.3327 15.0438 10.4081C15.7463 10.6403 16.1817 11.1163 16.2861 11.7607C16.3152 11.9464 16.2978 12.3005 16.2513 12.4863C16.2107 12.6314 16.0946 12.8985 16.0656 12.9043C16.0597 12.9043 16.0481 12.8752 16.0481 12.8288C16.0365 12.585 15.9146 12.3528 15.7114 12.1728C15.4676 11.9639 15.1541 11.8071 14.3878 11.4995Z" fill="white"/>
<path d="M13.5752 11.6912C13.5636 11.6042 13.5345 11.4939 13.5171 11.4474L13.4881 11.3604L13.5404 11.4242C13.6158 11.5113 13.6739 11.6158 13.7261 11.7609C13.7668 11.8712 13.7668 11.906 13.7668 12.086C13.7668 12.2601 13.761 12.3008 13.7261 12.3994C13.6681 12.5562 13.5984 12.6665 13.4823 12.7884C13.2733 13.0032 13.0005 13.1193 12.6115 13.1715C12.5419 13.1773 12.3445 13.1947 12.1703 13.2063C11.7349 13.2295 11.4447 13.276 11.1834 13.3689C11.1486 13.3805 11.1138 13.3921 11.108 13.3863C11.0963 13.3747 11.2763 13.2702 11.4214 13.2005C11.6246 13.1018 11.8336 13.0496 12.2922 12.9683C12.5186 12.9335 12.7508 12.8871 12.8089 12.8638C13.3836 12.6839 13.6681 12.2369 13.5752 11.6912Z" fill="white"/>
<path d="M14.1037 12.6264C13.9528 12.2955 13.9179 11.982 13.9992 11.686C14.0108 11.657 14.0224 11.6279 14.034 11.6279C14.0457 11.6279 14.0805 11.6453 14.1153 11.6686C14.185 11.715 14.3301 11.7963 14.7016 11.9994C15.1719 12.2549 15.4389 12.4522 15.6247 12.6786C15.7872 12.876 15.8859 13.1024 15.9324 13.381C15.9614 13.5378 15.944 13.9151 15.9033 14.0718C15.7756 14.5652 15.4854 14.96 15.0616 15.1864C14.9977 15.2212 14.9455 15.2444 14.9397 15.2444C14.9339 15.2444 14.9571 15.1864 14.9919 15.1167C15.1312 14.8207 15.1486 14.5362 15.0442 14.2169C14.9803 14.0196 14.8468 13.7816 14.5797 13.381C14.2604 12.9166 14.185 12.7947 14.1037 12.6264Z" fill="white"/>
<path d="M9.77865 14.4021C10.2082 14.0421 10.7365 13.7867 11.2242 13.7055C11.4331 13.6706 11.7815 13.6822 11.973 13.7345C12.2807 13.8158 12.5594 13.9899 12.7045 14.2047C12.8438 14.4137 12.9077 14.5936 12.9715 14.9942C12.9948 15.1509 13.0238 15.3134 13.0296 15.3483C13.076 15.5572 13.1689 15.7198 13.285 15.8068C13.465 15.9404 13.7785 15.9462 14.0861 15.8301C14.1384 15.8127 14.1848 15.7952 14.1848 15.801C14.1964 15.8127 14.0397 15.9171 13.9352 15.9694C13.7901 16.0449 13.674 16.0681 13.5172 16.0681C13.2386 16.0681 13.0006 15.9229 12.809 15.6327C12.7683 15.5746 12.6871 15.4063 12.6174 15.2496C12.4142 14.7794 12.3097 14.6401 12.0717 14.4833C11.8627 14.3498 11.5957 14.3208 11.3925 14.4195C11.1255 14.5472 11.0558 14.8897 11.2416 15.0986C11.317 15.1857 11.4564 15.2554 11.5725 15.2728C11.7873 15.3018 11.973 15.1335 11.973 14.9187C11.973 14.7794 11.9208 14.6981 11.7815 14.6342C11.5957 14.553 11.3925 14.6459 11.3983 14.8258C11.3983 14.9013 11.4331 14.9477 11.5086 14.9825C11.5551 15.0058 11.5551 15.0058 11.5202 15C11.3519 14.9651 11.3112 14.7562 11.4448 14.6226C11.6073 14.4601 11.9498 14.5298 12.0659 14.7562C12.1124 14.849 12.1182 15.0348 12.0775 15.1509C11.9788 15.4063 11.7002 15.5398 11.4157 15.4644C11.2242 15.4121 11.1429 15.3599 10.9107 15.1219C10.5043 14.7039 10.3476 14.6226 9.76704 14.5356L9.65674 14.5181L9.77865 14.4021Z" fill="white"/>
<path fill-rule="evenodd" clip-rule="evenodd" d="M6.72498 5.06211C8.0776 6.70491 10.1617 9.25909 10.2662 9.39841C10.3533 9.51451 10.3184 9.62481 10.1733 9.70608C10.092 9.75252 9.92367 9.79895 9.84239 9.79895C9.74951 9.79895 9.63921 9.75252 9.56374 9.67705C9.5115 9.62481 9.28509 9.29392 8.77423 8.49865C8.38528 7.88913 8.05438 7.38409 8.04857 7.37829C8.02535 7.36668 8.02535 7.36668 8.73359 8.63216C9.1806 9.42744 9.32573 9.71188 9.32573 9.74671C9.32573 9.82217 9.30251 9.86281 9.20962 9.9673C9.05288 10.1414 8.98322 10.3388 8.93097 10.751C8.87292 11.2096 8.71618 11.5346 8.26917 12.0861C8.00794 12.4112 7.9673 12.4692 7.90344 12.6027C7.82217 12.7653 7.79895 12.8582 7.78734 13.0671C7.77573 13.2877 7.79895 13.4271 7.86281 13.636C7.92086 13.8218 7.98472 13.9437 8.14146 14.1817C8.27498 14.3907 8.35625 14.5474 8.35625 14.6055C8.35625 14.6519 8.36786 14.6519 8.57685 14.6055C9.0761 14.4894 9.48827 14.292 9.71468 14.0482C9.854 13.8973 9.88884 13.816 9.88884 13.607C9.88884 13.4735 9.88303 13.4445 9.8482 13.3632C9.79015 13.2355 9.67985 13.131 9.44183 12.9685C9.12835 12.7537 8.99483 12.5795 8.96 12.3473C8.93097 12.15 8.9658 12.0164 9.13996 11.6507C9.31992 11.2734 9.36636 11.1167 9.39539 10.7336C9.41281 10.4897 9.44183 10.3911 9.5115 10.3156C9.58696 10.2343 9.65082 10.2053 9.83078 10.1821C10.1269 10.1414 10.3184 10.066 10.4694 9.92086C10.6029 9.79895 10.6609 9.67705 10.6667 9.4971L10.6725 9.36358L10.5971 9.28231C10.3242 8.96885 6.54502 4.8125 6.5276 4.8125C6.5218 4.8125 6.61468 4.92279 6.72498 5.06211ZM8.50719 13.3168C8.57105 13.2065 8.53622 13.0671 8.43172 12.9975C8.33303 12.9336 8.1821 12.9627 8.1821 13.0497C8.1821 13.0729 8.19371 13.0962 8.22854 13.1078C8.28078 13.1368 8.28659 13.1658 8.24595 13.2297C8.20532 13.2935 8.20532 13.3516 8.25756 13.3922C8.33884 13.4561 8.44914 13.4212 8.50719 13.3168Z" fill="white"/>
<path fill-rule="evenodd" clip-rule="evenodd" d="M10.8585 10.2632C10.7192 10.3038 10.5857 10.4548 10.545 10.6057C10.5218 10.6986 10.5334 10.8669 10.5741 10.9192C10.6379 11.0004 10.696 11.0237 10.8585 11.0237C11.1778 11.0237 11.4507 10.8843 11.4797 10.716C11.5087 10.5767 11.3868 10.3851 11.2184 10.298C11.1314 10.2516 10.9514 10.2342 10.8585 10.2632ZM11.2301 10.5535C11.2765 10.4838 11.2591 10.4083 11.172 10.3561C11.0153 10.2574 10.7772 10.3387 10.7772 10.4896C10.7772 10.5651 10.8992 10.6463 11.0153 10.6463C11.0907 10.6463 11.1952 10.5999 11.2301 10.5535Z" fill="white"/>
</g>
<path d="M12.5 21C12.5 16.0294 16.5294 12 21.5 12C26.4706 12 30.5 16.0294 30.5 21C30.5 25.9706 26.4706 30 21.5 30C16.5294 30 12.5 25.9706 12.5 21Z" fill="white"/>
<path fill-rule="evenodd" clip-rule="evenodd" d="M21.1193 12C19.386 12.0999 17.7854 12.6903 16.4524 13.6331H26.8383C25.5052 12.6903 23.9046 12.0999 22.1712 12H21.8943H21.1193ZM14.6924 15.2657C14.2798 15.7672 13.9222 16.3149 13.625 16.8987L24.4472 16.8988H29.6657C29.3684 16.3151 29.0111 15.7673 28.5981 15.2658L24.6011 15.2657H14.6924ZM12.5371 20.1809C12.5862 19.6202 12.6875 19.0747 12.8353 18.5483H30.1523C30.3002 19.0746 30.4014 19.6202 30.4507 20.1809H12.5371ZM12.5405 21.8143C12.5926 22.3753 12.6976 22.9208 12.8484 23.4469H30.1394C30.2904 22.9208 30.3952 22.3752 30.4473 21.8143H12.5405ZM14.5792 26.7129C14.1614 26.212 13.7987 25.6642 13.4969 25.08H24.8481L29.4908 25.08C29.1891 25.6643 28.8264 26.212 28.4086 26.7129H24.03L14.5792 26.7129ZM21.1133 29.969L21.1406 29.97L21.1679 29.971C21.2761 29.9749 21.3846 29.9775 21.4938 29.9775C23.4005 29.9775 25.1673 29.3734 26.6223 28.3463L23.7321 28.3462H16.3655C17.723 29.3046 19.3524 29.8945 21.1133 29.969Z" fill="#F44336"/>
<path d="M21.3077 12.0049C16.6988 12.0986 12.9424 15.6572 12.5381 20.1836H21.3078V12.0049H21.3077Z" fill="#283991"/>
<path d="M14.2997 17.0851L14.4367 17.5061H14.8806L14.5215 17.7664L14.6586 18.1877L14.2997 17.9273L13.9408 18.1877L14.0777 17.7664L13.7187 17.5061H14.1626L14.2997 17.0851Z" fill="#EFEFEF"/>
<path d="M14.2997 18.5725L14.4367 18.9938H14.8806L14.5215 19.2541L14.6586 19.6754L14.2997 19.4149L13.9408 19.6754L14.0777 19.2541L13.7187 18.9938H14.1626L14.2997 18.5725Z" fill="#EFEFEF"/>
<path d="M15.7905 14.8534L15.9275 15.2746H16.3713L16.0123 15.5351L16.1493 15.9561L15.7905 15.6959L15.4314 15.9561L15.5685 15.5351L15.2093 15.2746H15.6532L15.7905 14.8534Z" fill="#EFEFEF"/>
<path d="M15.7905 16.3411L15.9275 16.7623H16.3713L16.0123 17.0224L16.1493 17.4438L15.7905 17.1836L15.4314 17.4438L15.5685 17.0224L15.2093 16.7623H15.6532L15.7905 16.3411Z" fill="#EFEFEF"/>
<path d="M15.7905 17.8288L15.9275 18.2501H16.3713L16.0123 18.5101L16.1493 18.9314L15.7905 18.671L15.4314 18.9314L15.5685 18.5101L15.2093 18.2501H15.6532L15.7905 17.8288Z" fill="#EFEFEF"/>
<path d="M13.1678 18.9314L13.0307 18.5101L13.3897 18.2499H12.946L12.9361 18.2192C12.8873 18.3696 12.8433 18.5218 12.8027 18.6756L12.809 18.671L13.1678 18.9314Z" fill="#EFEFEF"/>
<path d="M13.9408 16.7001L14.2996 16.4396L14.6587 16.7001L14.5215 16.2788L14.8805 16.0183H14.4366L14.2995 15.5973L14.1625 16.0183H13.9989C13.9685 16.0642 13.9391 16.1104 13.9096 16.157L14.0777 16.2788L13.9408 16.7001Z" fill="#EFEFEF"/>
<path d="M15.7905 14.2082L16.1493 14.4684L16.0123 14.0474L16.3711 13.787H16.1148C15.8971 13.9494 15.6871 14.1213 15.4853 14.3026L15.4311 14.4684L15.7905 14.2082Z" fill="#EFEFEF"/>
<path d="M16.9223 13.7247L17.2813 13.4643L17.6401 13.7247L17.5031 13.3034L17.8619 13.0432H17.4182L17.3996 12.9865C17.2492 13.0632 17.1004 13.143 16.9549 13.2279L17.0592 13.3034L16.9223 13.7247Z" fill="#EFEFEF"/>
<path d="M17.2813 14.1097L17.4183 14.5306H17.8621L17.5031 14.7911L17.6401 15.2124L17.2813 14.9519L16.9222 15.2124L17.0593 14.7911L16.7002 14.5306H17.1441L17.2813 14.1097Z" fill="#EFEFEF"/>
<path d="M17.2813 15.5974L17.4183 16.0183H17.8621L17.5031 16.2788L17.6401 16.7001L17.2813 16.4396L16.9222 16.7001L17.0593 16.2788L16.7002 16.0183H17.1441L17.2813 15.5974Z" fill="#EFEFEF"/>
<path d="M17.2813 17.0851L17.4183 17.5061H17.8621L17.5031 17.7664L17.6401 18.1877L17.2813 17.9273L16.9222 18.1877L17.0593 17.7664L16.7002 17.5061H17.1441L17.2813 17.0851Z" fill="#EFEFEF"/>
<path d="M17.2813 18.5725L17.4183 18.9938H17.8621L17.5031 19.2541L17.6401 19.6754L17.2813 19.4149L16.9222 19.6754L17.0593 19.2541L16.7002 18.9938H17.1441L17.2813 18.5725Z" fill="#EFEFEF"/>
<path d="M18.7721 13.3658L18.9091 13.7869H19.3529L18.994 14.0474L19.1309 14.4684L18.7721 14.2082L18.4129 14.4684L18.5501 14.0474L18.191 13.7869H18.6349L18.7721 13.3658Z" fill="#EFEFEF"/>
<path d="M18.7721 14.8534L18.9091 15.2746H19.3529L18.994 15.5351L19.1309 15.9561L18.7721 15.6959L18.4129 15.9561L18.5501 15.5351L18.191 15.2746H18.6349L18.7721 14.8534Z" fill="#EFEFEF"/>
<path d="M18.7721 16.3411L18.9091 16.7623H19.3529L18.994 17.0224L19.1309 17.4438L18.7721 17.1836L18.4129 17.4438L18.5501 17.0224L18.191 16.7623H18.6349L18.7721 16.3411Z" fill="#EFEFEF"/>
<path d="M18.7721 17.8288L18.9091 18.2501H19.3529L18.994 18.5101L19.1309 18.9314L18.7721 18.671L18.4129 18.9314L18.5501 18.5101L18.191 18.2501H18.6349L18.7721 17.8288Z" fill="#EFEFEF"/>
<path d="M20.2629 12.6221L20.3999 13.0432H20.8437L20.4847 13.3034L20.6217 13.7247L20.2629 13.4642L19.9038 13.7247L20.0409 13.3034L19.6818 13.0432H20.1256L20.2629 12.6221Z" fill="#EFEFEF"/>
<path d="M20.2629 14.1097L20.3999 14.5306H20.8437L20.4847 14.7911L20.6217 15.2124L20.2629 14.9519L19.9038 15.2124L20.0409 14.7911L19.6818 14.5306H20.1256L20.2629 14.1097Z" fill="#EFEFEF"/>
<path d="M20.2629 15.5974L20.3999 16.0183H20.8437L20.4847 16.2788L20.6217 16.7001L20.2629 16.4396L19.9038 16.7001L20.0409 16.2788L19.6818 16.0183H20.1256L20.2629 15.5974Z" fill="#EFEFEF"/>
<path d="M20.2629 17.0851L20.3999 17.5061H20.8437L20.4847 17.7664L20.6217 18.1877L20.2629 17.9273L19.9038 18.1877L20.0409 17.7664L19.6818 17.5061H20.1256L20.2629 17.0851Z" fill="#EFEFEF"/>
<path d="M20.2629 18.5725L20.3999 18.9938H20.8437L20.4847 19.2541L20.6217 19.6754L20.2629 19.4149L19.9038 19.6754L20.0409 19.2541L19.6818 18.9938H20.1256L20.2629 18.5725Z" fill="#EFEFEF"/>
<defs>
<clipPath id="clip0_10352_38078">
<rect width="9.77022" height="11.25" fill="white" transform="translate(6.52783 4.8125)"/>
</clipPath>
</defs>
</svg>

<svg width="33" height="32" fill="none" xmlns="http://www.w3.org/2000/svg"><path d="M2.5 11a9 9 0 1 1 18 0 9 9 0 0 1-18 0Z" fill="#FF007A"/><g clip-path="url(#a)" fill="#fff"><path d="M10.36 7.373c-.122-.018-.128-.023-.07-.03.11-.017.366.007.546.047.418.099.795.354 1.196.801l.104.122.151-.023a3.237 3.237 0 0 1 1.858.232c.15.07.389.21.418.244a.56.56 0 0 1 .04.162c.041.273.024.476-.063.633-.047.087-.047.11-.018.186.023.058.093.099.157.099.14 0 .284-.22.354-.529l.029-.121.052.058c.296.33.528.789.563 1.114l.012.087-.052-.075a.98.98 0 0 0-.279-.296c-.197-.134-.406-.174-.958-.203-.5-.03-.784-.07-1.062-.163-.476-.157-.72-.36-1.283-1.109-.25-.33-.406-.51-.563-.662-.343-.33-.685-.505-1.132-.574Z"/><path d="M14.684 8.11c.012-.221.04-.366.104-.5a.403.403 0 0 1 .053-.098c.006 0-.006.04-.023.087-.047.127-.053.307-.024.51.04.262.058.297.337.581.128.134.279.302.337.372l.098.127-.098-.093a3.536 3.536 0 0 0-.465-.365c-.04-.023-.046-.023-.075.006-.024.023-.03.058-.03.226-.005.261-.04.424-.127.592-.046.087-.052.07-.012-.029.03-.075.035-.11.035-.36 0-.505-.058-.627-.412-.83a4.335 4.335 0 0 0-.325-.168 1.29 1.29 0 0 1-.157-.076c.012-.011.354.087.488.145.203.082.238.087.261.082.018-.018.03-.064.035-.21ZM10.597 8.974c-.244-.336-.4-.859-.366-1.248l.012-.122.058.012c.105.018.284.087.372.14.232.139.336.33.435.806.029.14.07.302.087.354.03.087.14.29.232.418.064.093.024.14-.122.128-.22-.023-.516-.226-.708-.488ZM14.388 11.5c-1.15-.465-1.556-.866-1.556-1.545 0-.098.006-.18.006-.18.006 0 .046.035.099.076.232.186.493.267 1.219.371.423.064.667.11.888.186.702.232 1.138.708 1.242 1.353.03.185.012.54-.035.725-.04.145-.156.412-.185.418-.006 0-.018-.029-.018-.075a.945.945 0 0 0-.337-.656c-.243-.21-.557-.366-1.323-.674ZM13.575 11.691a1.378 1.378 0 0 0-.058-.244l-.029-.087.052.064c.076.087.134.192.186.337.04.11.04.145.04.325 0 .174-.005.215-.04.313a1.05 1.05 0 0 1-.244.39c-.209.214-.481.33-.87.383-.07.005-.268.023-.442.034-.435.024-.725.07-.987.163-.034.011-.07.023-.075.017-.012-.011.168-.116.313-.185.204-.1.413-.151.871-.233a3.96 3.96 0 0 0 .517-.104c.575-.18.86-.627.766-1.173Z"/><path d="M14.104 12.626c-.151-.33-.186-.644-.105-.94.012-.029.023-.058.035-.058.012 0 .046.017.081.04.07.047.215.128.587.331.47.256.737.453.923.68.162.197.26.423.307.702.03.157.012.534-.029.69-.127.494-.418.889-.841 1.115a.81.81 0 0 1-.122.058.462.462 0 0 1 .052-.127c.14-.296.157-.58.052-.9-.064-.197-.197-.435-.464-.836-.32-.464-.395-.586-.476-.755ZM9.779 14.402c.43-.36.957-.615 1.445-.696.21-.035.557-.024.749.029.308.08.586.255.731.47.14.209.204.389.268.79.023.156.052.318.058.353.046.21.139.372.255.459.18.133.493.14.801.023.052-.017.099-.035.099-.029.011.012-.145.116-.25.168a.821.821 0 0 1-.418.1c-.278 0-.516-.146-.708-.436a3.264 3.264 0 0 1-.192-.383c-.203-.47-.307-.61-.545-.767-.21-.133-.476-.162-.68-.064a.437.437 0 0 0-.15.68.593.593 0 0 0 .33.174c.215.029.401-.14.401-.354 0-.14-.052-.22-.192-.285-.185-.081-.389.012-.383.192 0 .075.035.122.11.156.047.024.047.024.012.018-.168-.035-.209-.244-.075-.377.162-.163.505-.093.62.133a.607.607 0 0 1 .013.395c-.1.255-.378.389-.662.313-.192-.052-.273-.104-.505-.342-.407-.418-.563-.5-1.144-.586l-.11-.018.122-.116Z"/><path fill-rule="evenodd" clip-rule="evenodd" d="M6.725 5.062a618.667 618.667 0 0 1 3.541 4.336c.087.117.052.227-.093.308a.888.888 0 0 1-.33.093.419.419 0 0 1-.28-.122c-.052-.052-.278-.383-.789-1.178-.389-.61-.72-1.115-.725-1.12-.024-.012-.024-.012.685 1.253.447.795.592 1.08.592 1.115 0 .075-.023.116-.116.22-.157.174-.227.372-.279.784-.058.459-.215.784-.662 1.335-.261.325-.302.383-.366.517a.982.982 0 0 0-.116.464c-.011.22.012.36.076.569.058.186.122.308.278.546.134.209.215.365.215.423 0 .047.012.047.22 0 .5-.116.912-.313 1.139-.557.139-.15.174-.232.174-.441 0-.133-.006-.162-.04-.244-.059-.127-.17-.232-.407-.394-.314-.215-.447-.39-.482-.622-.029-.197.006-.33.18-.696.18-.378.226-.534.255-.917.018-.244.047-.343.117-.418.075-.082.139-.11.319-.134.296-.04.487-.116.638-.261a.546.546 0 0 0 .198-.424l.005-.133-.075-.082c-.273-.313-4.052-4.47-4.07-4.47-.005 0 .088.11.198.25Zm1.782 8.255a.24.24 0 0 0-.075-.32c-.099-.063-.25-.034-.25.053 0 .023.012.046.047.058.052.029.058.058.017.122-.04.063-.04.122.012.162.08.064.191.03.25-.075ZM10.858 10.263a.516.516 0 0 0-.313.343c-.023.093-.012.26.03.313.063.081.121.105.284.105.319 0 .592-.14.62-.308.03-.14-.092-.33-.26-.418a.59.59 0 0 0-.36-.035Zm.372.29c.046-.07.03-.145-.058-.197-.157-.099-.395-.017-.395.134 0 .075.122.156.238.156.076 0 .18-.046.215-.093Z"/></g><path d="M12.5 21a9 9 0 1 1 18 0 9 9 0 0 1-18 0Z" fill="#fff"/><path fill-rule="evenodd" clip-rule="evenodd" d="M21.12 12c-1.734.1-3.335.69-4.668 1.633h10.386A8.956 8.956 0 0 0 22.171 12H21.12Zm-6.428 3.266a8.985 8.985 0 0 0-1.067 1.633h16.041a8.973 8.973 0 0 0-1.068-1.633H14.692Zm-2.155 4.915c.05-.56.15-1.106.298-1.633h17.317c.148.527.25 1.072.299 1.633H12.537Zm.003 1.633c.053.561.158 1.107.308 1.633H30.14a8.897 8.897 0 0 0 .308-1.633H12.541Zm2.04 4.899a8.99 8.99 0 0 1-1.083-1.633H29.49a8.981 8.981 0 0 1-1.082 1.633H14.58Zm6.533 3.256.028.001.027.001a8.86 8.86 0 0 0 5.454-1.625H16.366a8.859 8.859 0 0 0 4.747 1.623Z" fill="#F44336"/><path d="M21.308 12.005a8.991 8.991 0 0 0-8.77 8.179h8.77v-8.18Z" fill="#283991"/><path d="m14.3 17.085.137.421h.444l-.36.26.138.422-.36-.26-.358.26.137-.422-.36-.26h.445l.137-.42ZM14.3 18.573l.137.42h.444l-.36.261.138.421-.36-.26-.358.26.137-.42-.36-.261h.445l.137-.421ZM15.79 14.853l.138.422h.443l-.359.26.137.421-.359-.26-.359.26.138-.42-.36-.261h.444l.137-.422ZM15.79 16.341l.138.421h.443l-.359.26.137.422-.359-.26-.359.26.138-.422-.36-.26h.444l.137-.42ZM15.79 17.829l.138.421h.443l-.359.26.137.421-.359-.26-.359.26.138-.42-.36-.26h.444l.137-.422ZM13.168 18.931l-.137-.42.359-.261h-.444l-.01-.03c-.049.15-.093.302-.133.456l.006-.005.359.26ZM13.94 16.7l.36-.26.359.26-.138-.421.36-.26h-.444l-.137-.422-.138.421H14l-.09.139.169.122-.137.421ZM15.79 14.208l.36.26-.138-.42.36-.261h-.257a8.941 8.941 0 0 0-.63.516l-.054.165.36-.26ZM16.922 13.725l.36-.26.358.26-.137-.422.359-.26h-.444l-.018-.056c-.15.076-.3.156-.445.24l.104.076-.137.422ZM17.281 14.11l.137.42h.444l-.359.261.137.421-.359-.26-.359.26.137-.42-.359-.261h.444l.137-.421ZM17.281 15.597l.137.421h.444l-.359.26.137.422-.359-.26-.359.26.137-.421-.359-.26h.444l.137-.422ZM17.281 17.085l.137.421h.444l-.359.26.137.422-.359-.26-.359.26.137-.422-.359-.26h.444l.137-.42ZM17.281 18.573l.137.42h.444l-.359.261.137.421-.359-.26-.359.26.137-.42-.359-.261h.444l.137-.421ZM18.772 13.366l.137.42h.444l-.359.261.137.421-.359-.26-.36.26.138-.42-.359-.261h.444l.137-.421ZM18.772 14.853l.137.422h.444l-.359.26.137.421-.359-.26-.36.26.138-.42-.359-.261h.444l.137-.422ZM18.772 16.341l.137.421h.444l-.359.26.137.422-.359-.26-.36.26.138-.422-.359-.26h.444l.137-.42ZM18.772 17.829l.137.421h.444l-.359.26.137.421-.359-.26-.36.26.138-.42-.359-.26h.444l.137-.422ZM20.263 12.622l.137.421h.444l-.36.26.138.422-.36-.26-.358.26.137-.422-.36-.26h.445l.137-.42ZM20.263 14.11l.137.42h.444l-.36.261.138.421-.36-.26-.358.26.137-.42-.36-.261h.445l.137-.421ZM20.263 15.597l.137.421h.444l-.36.26.138.422-.36-.26-.358.26.137-.421-.36-.26h.445l.137-.422ZM20.263 17.085l.137.421h.444l-.36.26.138.422-.36-.26-.358.26.137-.422-.36-.26h.445l.137-.42ZM20.263 18.573l.137.42h.444l-.36.261.138.421-.36-.26-.358.26.137-.42-.36-.261h.445l.137-.421Z" fill="#EFEFEF"/><defs><clipPath id="a"><path fill="#fff" transform="translate(6.528 4.813)" d="M0 0h9.77v11.25H0z"/></clipPath></defs></svg>
